X:110
T:Hag With The Money, The
R:jig
S:https://thesession.org/tunes/351
M:6/8
L:1/8
Z:Joerg Froese
K:Dmixolydian
|:Adc A3 | AGE G3 | Adc A3 | GEA GED |
Adc A3 | AGE G3 | AGE cde | dcA GED:||
|:ABc dcd | fed efe | ABc dcd |eag edc |
ABc dcd | fed efg | age cde | dcA GED :||

